X:242
T:My Jesus, As Thou Wilt
%%stretchlast false
M:4/4
L:1/4
K:C clef=C1
"^I"[C,G,EG]2 [C,CE]/ [C,G,CE]/ [C,E,C]/ [C,G,CE]/ | "^V"[G,,G,B,D]3/2 [G,,G,DF]/4 "^I²"[G,,G,CE]/4 "^V"[G,,G,B,D]2 | "^I"[C,G,CE]2 [C,E,C] [C,G,CE]/ [C,G,EG]/ | "^I²"[G,,CEG]3/2 "^v7"[G,,G,DF]/ "^I"[C,G,CE]2 | "^IV²"[C,A,Fc]2 [C,F,FA]/ [C,F,CA]/ [C,A,CF]/ [C,A,FA]/ | "^I"[C,CEG]3/2 [C,G,EG]/ [C,G,CE] [C,E,C]/ [C,G,CE]/ | "^iii¹"[G,,G,EG]/ "^v7"[G,,G,DF]/ "^V"[G,,G,B,D] "^ii"[C,G,DF]/ "^I"[C,G,CE]/ "^I¹"[E,G,C] | "^V"[G,B,D]2 [G,,G,B,G] "^I"[C,E] | [C,G,EG] "^i"[C,G,CG] "^I"[C,CE]/ [C,G,CE]/ "^Imaj7²"[G,,E,B,C]/ "^iii¹"[G,,G,B,E]/ | "^V"[G,,G,B,D]/ "^v"[G,,G,D]/4 [G,,G,CD]/4 "^V"[G,,G,B,D]/ "^V7"[G,,G,B,F]/4 "^iii¹"[G,,G,B,E]/4 "^V"[G,,G,B,D] "^i"[C,G,CD] | "^I"[C,G,CE] [C,G,E] [C,E,C] "^I¹"[E,G,CE]/ "^I7¹"[E,^A,CG]/ | [E,^A,CG]/ [E,^A,CG]/ [F,^A,CG]/ "^iv"[F,B,C^G]/ "^IV"[F,A,CA] [F,,A,FA] | [F,,A,Fc] [F,,A,Fc]/ [F,,A,Cc]/ [F,CA]/ [F,FA]/ "^IVmaj7²"[C,A,EF]/ "^vi¹"[C,CEA]/ | "^I"[C,CEG]/ [C,CEG]/ "^i"[C,CG]/ [C,G,CG]/ "^I"[C,G,CE] "^I²"[G,,E,CE]/ "^iii¹"[G,,G,E]/4 "^I²"[G,,G,CE]/4 | "^i"[G,,CG]3/4 "^I²"[G,,E,C]/4 [G,,G,CE] "^iii¹"[G,,G,B,E] "^ii7³"[C,F,CD] | "^I"[C,E,C]4 |]
